src/assets/weather/snow.svg

<svg xmlns="http://www.w3.org/2000/svg" xmlns:xlink="http://www.w3.org/1999/xlink" width="500" zoomAndPan="magnify" viewBox="0 0 375 374.999991" height="500" preserveAspectRatio="xMidYMid meet" version="1.0"><defs><clipPath id="179d4ec1be"><path d="M 37.5 34.40625 L 343.5 34.40625 L 343.5 205 L 37.5 205 Z M 37.5 34.40625 " clip-rule="nonzero"/></clipPath><clipPath id="1d670098e7"><path d="M 40 212 L 332 212 L 332 340.40625 L 40 340.40625 Z M 40 212 " clip-rule="nonzero"/></clipPath></defs><g clip-path="url(#179d4ec1be)"><path fill="#e1e8ed" d="M 275.5 68.40625 C 268.488281 68.40625 261.730469 69.46875 255.363281 71.441406 C 247.824219 49.894531 227.371094 34.40625 203.25 34.40625 C 177.375 34.40625 155.71875 52.222656 149.707031 76.234375 C 143.300781 71.390625 135.410156 68.40625 126.75 68.40625 C 105.628906 68.40625 88.5 85.535156 88.5 106.65625 C 88.5 111.789062 89.546875 116.667969 91.382812 121.140625 C 87.734375 120.128906 83.96875 119.40625 80 119.40625 C 56.523438 119.40625 37.5 138.429688 37.5 161.90625 C 37.5 185.382812 56.523438 204.40625 80 204.40625 L 275.5 204.40625 C 313.054688 204.40625 343.5 173.96875 343.5 136.40625 C 343.5 98.851562 313.054688 68.40625 275.5 68.40625 Z M 275.5 68.40625 " fill-opacity="1" fill-rule="nonzero"/></g><g clip-path="url(#1d670098e7)"><path fill="#5dadec" d="M 93.003906 261.78125 C 91.832031 259.75 89.238281 259.0625 87.199219 260.226562 L 71.5 269.296875 L 71.5 251.15625 C 71.5 248.808594 69.597656 246.90625 67.25 246.90625 C 64.902344 246.90625 63 248.808594 63 251.15625 L 63 269.304688 L 47.285156 260.234375 C 45.253906 259.0625 42.652344 259.75 41.476562 261.789062 C 40.296875 263.828125 40.992188 266.421875 43.035156 267.605469 L 58.742188 276.65625 L 43.035156 285.726562 C 41.003906 286.898438 40.3125 289.492188 41.476562 291.53125 C 42.652344 293.570312 45.242188 294.257812 47.285156 293.09375 L 63 284.015625 L 63 302.15625 C 63 304.503906 64.902344 306.40625 67.25 306.40625 C 69.597656 306.40625 71.5 304.503906 71.5 302.15625 L 71.5 284.027344 L 87.207031 293.09375 C 89.238281 294.269531 91.839844 293.578125 93.011719 291.53125 C 94.1875 289.5 93.496094 286.898438 91.457031 285.726562 L 75.75 276.65625 L 91.457031 267.585938 C 93.488281 266.414062 94.1875 263.820312 93.003906 261.78125 Z M 178.003906 295.78125 C 176.832031 293.75 174.238281 293.0625 172.199219 294.226562 L 156.5 303.296875 L 156.5 285.15625 C 156.5 282.808594 154.597656 280.90625 152.25 280.90625 C 149.902344 280.90625 148 282.808594 148 285.15625 L 148 303.304688 L 132.285156 294.234375 C 130.253906 293.0625 127.652344 293.75 126.476562 295.789062 C 125.296875 297.828125 125.992188 300.421875 128.035156 301.605469 L 143.742188 310.671875 L 128.035156 319.742188 C 126.003906 320.914062 125.3125 323.507812 126.476562 325.546875 C 127.652344 327.589844 130.242188 328.277344 132.285156 327.113281 L 148 318.015625 L 148 336.15625 C 148 338.503906 149.902344 340.40625 152.25 340.40625 C 154.597656 340.40625 156.5 338.503906 156.5 336.15625 L 156.5 318.027344 L 172.207031 327.09375 C 174.238281 328.269531 176.839844 327.578125 178.011719 325.53125 C 179.1875 323.5 178.496094 320.898438 176.457031 319.726562 L 160.75 310.65625 L 176.457031 301.585938 C 178.488281 300.414062 179.1875 297.820312 178.003906 295.78125 Z M 131 268.15625 C 131 270.503906 132.902344 272.40625 135.25 272.40625 C 137.597656 272.40625 139.5 270.503906 139.5 268.15625 L 139.5 250.027344 L 155.207031 259.09375 C 157.238281 260.269531 159.839844 259.578125 161.011719 257.53125 C 162.1875 255.5 161.496094 252.898438 159.457031 251.726562 L 143.75 242.65625 L 159.457031 233.585938 C 161.488281 232.40625 162.1875 229.820312 161.011719 227.773438 C 159.839844 225.742188 157.246094 225.050781 155.207031 226.21875 L 139.5 235.296875 L 139.5 217.15625 C 139.5 214.808594 137.597656 212.90625 135.25 212.90625 C 132.902344 212.90625 131 214.808594 131 217.15625 L 131 235.304688 L 115.285156 226.234375 C 113.253906 225.0625 110.652344 225.75 109.476562 227.789062 C 108.296875 229.828125 108.992188 232.421875 111.035156 233.605469 L 126.742188 242.671875 L 111.035156 251.742188 C 109.003906 252.914062 108.3125 255.507812 109.476562 257.546875 C 110.652344 259.589844 113.242188 260.277344 115.285156 259.113281 L 131 250.015625 Z M 240.207031 267.59375 C 242.238281 268.769531 244.839844 268.078125 246.011719 266.03125 C 247.1875 264 246.496094 261.398438 244.457031 260.226562 L 228.75 251.15625 L 244.457031 242.085938 C 246.488281 240.90625 247.1875 238.320312 246.011719 236.273438 C 244.839844 234.242188 242.246094 233.550781 240.207031 234.71875 L 224.5 243.796875 L 224.5 225.65625 C 224.5 223.308594 222.597656 221.40625 220.25 221.40625 C 217.902344 221.40625 216 223.308594 216 225.65625 L 216 243.804688 L 200.285156 234.734375 C 198.253906 233.5625 195.652344 234.25 194.476562 236.289062 C 193.296875 238.328125 193.992188 240.921875 196.035156 242.105469 L 211.742188 251.171875 L 196.035156 260.242188 C 194.003906 261.414062 193.3125 264.007812 194.476562 266.046875 C 195.652344 268.089844 198.242188 268.777344 200.285156 267.613281 L 216 258.515625 L 216 276.65625 C 216 279.003906 217.902344 280.90625 220.25 280.90625 C 222.597656 280.90625 224.5 279.003906 224.5 276.65625 L 224.5 258.527344 Z M 329.457031 251.726562 L 313.75 242.65625 L 329.457031 233.585938 C 331.488281 232.40625 332.1875 229.820312 331.011719 227.773438 C 329.839844 225.742188 327.246094 225.050781 325.207031 226.21875 L 309.5 235.296875 L 309.5 217.15625 C 309.5 214.808594 307.597656 212.90625 305.25 212.90625 C 302.902344 212.90625 301 214.808594 301 217.15625 L 301 235.304688 L 285.285156 226.234375 C 283.253906 225.0625 280.652344 225.75 279.476562 227.789062 C 278.296875 229.828125 278.992188 232.421875 281.035156 233.605469 L 296.742188 242.671875 L 281.035156 251.742188 C 279.003906 252.914062 278.3125 255.507812 279.476562 257.546875 C 280.652344 259.589844 283.242188 260.277344 285.285156 259.113281 L 301 250.015625 L 301 268.15625 C 301 270.503906 302.902344 272.40625 305.25 272.40625 C 307.597656 272.40625 309.5 270.503906 309.5 268.15625 L 309.5 250.027344 L 325.207031 259.09375 C 327.238281 260.269531 329.839844 259.578125 331.011719 257.53125 C 332.179688 255.5 331.488281 252.898438 329.457031 251.726562 Z M 288.503906 295.78125 C 287.332031 293.75 284.738281 293.0625 282.699219 294.226562 L 267 303.296875 L 267 285.15625 C 267 282.808594 265.097656 280.90625 262.75 280.90625 C 260.402344 280.90625 258.5 282.808594 258.5 285.15625 L 258.5 303.304688 L 242.785156 294.234375 C 240.753906 293.0625 238.152344 293.75 236.976562 295.789062 C 235.796875 297.828125 236.492188 300.421875 238.535156 301.605469 L 254.242188 310.671875 L 238.535156 319.742188 C 236.503906 320.914062 235.8125 323.507812 236.976562 325.546875 C 238.152344 327.589844 240.742188 328.277344 242.785156 327.113281 L 258.5 318.015625 L 258.5 336.15625 C 258.5 338.503906 260.402344 340.40625 262.75 340.40625 C 265.097656 340.40625 267 338.503906 267 336.15625 L 267 318.027344 L 282.707031 327.09375 C 284.738281 328.269531 287.339844 327.578125 288.511719 325.53125 C 289.6875 323.5 288.996094 320.898438 286.957031 319.726562 L 271.25 310.65625 L 286.957031 301.585938 C 288.988281 300.414062 289.6875 297.820312 288.503906 295.78125 Z M 288.503906 295.78125 " fill-opacity="1" fill-rule="nonzero"/></g></svg>

<svg xmlns="http://www.w3.org/2000/svg" width="500" viewBox="0 0 375 375" height="500" version="1.0"><defs><clipPath id="a"><path d="M37.5 34.406h306V205h-306Zm0 0"/></clipPath><clipPath id="b"><path d="M40 212h292v128.406H40Zm0 0"/></clipPath></defs><g clip-path="url(#a)"><path fill="#e1e8ed" d="M275.5 68.406a67.913 67.913 0 0 0-20.137 3.035c-7.539-21.546-27.992-37.035-52.113-37.035-25.875 0-47.531 17.817-53.543 41.828-6.406-4.843-14.297-7.828-22.957-7.828-21.121 0-38.25 17.13-38.25 38.25 0 5.133 1.047 10.012 2.883 14.485-3.649-1.012-7.414-1.735-11.383-1.735-23.477 0-42.5 19.024-42.5 42.5 0 23.477 19.023 42.5 42.5 42.5h195.5c37.555 0 68-30.437 68-68 0-37.554-30.445-68-68-68Zm0 0"/></g><g clip-path="url(#b)"><path fill="#5dadec" d="M93.004 261.781c-1.172-2.031-3.766-2.719-5.805-1.554l-15.699 9.07v-18.14a4.25 4.25 0 1 0-8.5 0v18.148l-15.715-9.07a4.25 4.25 0 0 0-5.808 1.554 4.25 4.25 0 0 0 1.558 5.816l15.707 9.051-15.707 9.07a4.258 4.258 0 0 0-1.558 5.805 4.257 4.257 0 0 0 5.808 1.563L63 284.016v18.14a4.25 4.25 0 1 0 8.5 0v-18.129l15.707 9.067a4.237 4.237 0 0 0 5.805-1.563 4.241 4.241 0 0 0-1.555-5.804l-15.707-9.07 15.707-9.071a4.237 4.237 0 0 0 1.547-5.805Zm85 34c-1.172-2.031-3.766-2.719-5.805-1.554l-15.699 9.07v-18.14a4.25 4.25 0 1 0-8.5 0v18.148l-15.715-9.07a4.25 4.25 0 0 0-5.808 1.554 4.25 4.25 0 0 0 1.558 5.816l15.707 9.067-15.707 9.07a4.254 4.254 0 0 0 4.25 7.371L148 318.016v18.14a4.25 4.25 0 1 0 8.5 0v-18.129l15.707 9.067a4.237 4.237 0 0 0 5.805-1.563 4.241 4.241 0 0 0-1.555-5.804l-15.707-9.07 15.707-9.071a4.237 4.237 0 0 0 1.547-5.805ZM131 268.156a4.25 4.25 0 1 0 8.5 0v-18.129l15.707 9.067a4.237 4.237 0 0 0 5.805-1.563 4.241 4.241 0 0 0-1.555-5.804l-15.707-9.07 15.707-9.071a4.253 4.253 0 0 0-4.25-7.367l-15.707 9.078v-18.14a4.25 4.25 0 1 0-8.5 0v18.148l-15.715-9.07a4.25 4.25 0 0 0-5.808 1.554 4.25 4.25 0 0 0 1.558 5.816l15.707 9.067-15.707 9.07a4.254 4.254 0 0 0 4.25 7.371L131 250.016Zm109.207-.562a4.237 4.237 0 0 0 5.805-1.563 4.241 4.241 0 0 0-1.555-5.804l-15.707-9.07 15.707-9.071a4.253 4.253 0 0 0-4.25-7.367l-15.707 9.078v-18.14a4.25 4.25 0 1 0-8.5 0v18.148l-15.715-9.07a4.25 4.25 0 0 0-5.808 1.554 4.25 4.25 0 0 0 1.558 5.816l15.707 9.067-15.707 9.07a4.254 4.254 0 0 0 4.25 7.371L216 258.516v18.14a4.25 4.25 0 1 0 8.5 0v-18.129Zm89.25-15.867-15.707-9.07 15.707-9.071a4.253 4.253 0 0 0-4.25-7.367l-15.707 9.078v-18.14a4.25 4.25 0 1 0-8.5 0v18.148l-15.715-9.07a4.25 4.25 0 0 0-5.808 1.554 4.25 4.25 0 0 0 1.558 5.816l15.707 9.067-15.707 9.07a4.254 4.254 0 0 0 4.25 7.371L301 250.016v18.14a4.25 4.25 0 1 0 8.5 0v-18.129l15.707 9.067a4.237 4.237 0 0 0 5.805-1.563 4.255 4.255 0 0 0-1.555-5.804Zm-40.953 44.054c-1.172-2.031-3.766-2.719-5.805-1.554L267 303.297v-18.14a4.25 4.25 0 1 0-8.5 0v18.148l-15.715-9.07a4.25 4.25 0 0 0-5.808 1.554 4.25 4.25 0 0 0 1.558 5.816l15.707 9.067-15.707 9.07a4.254 4.254 0 0 0 4.25 7.371l15.715-9.097v18.14a4.25 4.25 0 1 0 8.5 0v-18.129l15.707 9.067a4.237 4.237 0 0 0 5.805-1.563 4.241 4.241 0 0 0-1.555-5.804l-15.707-9.07 15.707-9.071a4.237 4.237 0 0 0 1.547-5.805Zm0 0"/></g></svg>
